src/assets/mic-chat-icon.svg

<svg width="15" height="20" viewBox="0 0 15 20" fill="none" xmlns="http://www.w3.org/2000/svg">
<path d="M7.50928 12.0684C6.67594 12.0684 5.96761 11.7767 5.38428 11.1934C4.80094 10.61 4.50928 9.90169 4.50928 9.06836V3.06836C4.50928 2.23503 4.80094 1.52669 5.38428 0.943359C5.96761 0.360026 6.67594 0.0683594 7.50928 0.0683594C8.34261 0.0683594 9.05094 0.360026 9.63428 0.943359C10.2176 1.52669 10.5093 2.23503 10.5093 3.06836V9.06836C10.5093 9.90169 10.2176 10.61 9.63428 11.1934C9.05094 11.7767 8.34261 12.0684 7.50928 12.0684ZM6.50928 19.0684V15.9934C4.77594 15.76 3.34261 14.985 2.20928 13.6684C1.07594 12.3517 0.509277 10.8184 0.509277 9.06836H2.50928C2.50928 10.4517 2.99678 11.6309 3.97178 12.6059C4.94678 13.5809 6.12594 14.0684 7.50928 14.0684C8.89261 14.0684 10.0718 13.5809 11.0468 12.6059C12.0218 11.6309 12.5093 10.4517 12.5093 9.06836H14.5093C14.5093 10.8184 13.9426 12.3517 12.8093 13.6684C11.6759 14.985 10.2426 15.76 8.50928 15.9934V19.0684H6.50928ZM7.50928 10.0684C7.79261 10.0684 8.03011 9.97253 8.22178 9.78086C8.41344 9.58919 8.50928 9.35169 8.50928 9.06836V3.06836C8.50928 2.78503 8.41344 2.54753 8.22178 2.35586C8.03011 2.16419 7.79261 2.06836 7.50928 2.06836C7.22594 2.06836 6.98844 2.16419 6.79678 2.35586C6.60511 2.54753 6.50928 2.78503 6.50928 3.06836V9.06836C6.50928 9.35169 6.60511 9.58919 6.79678 9.78086C6.98844 9.97253 7.22594 10.0684 7.50928 10.0684Z" fill="#9390A0"/>
</svg>

<svg width="15" height="20" fill="none" xmlns="http://www.w3.org/2000/svg"><path d="M7.51 12.068a2.893 2.893 0 01-2.126-.875 2.893 2.893 0 01-.875-2.125v-6c0-.833.292-1.541.875-2.125A2.893 2.893 0 017.51.068c.834 0 1.542.292 2.125.875.584.584.875 1.292.875 2.125v6c0 .834-.291 1.542-.875 2.125a2.893 2.893 0 01-2.125.875zm-1 7v-3.075c-1.734-.233-3.167-1.008-4.3-2.325-1.134-1.316-1.7-2.85-1.7-4.6h2c0 1.384.487 2.563 1.462 3.538.975.975 2.154 1.462 3.537 1.462 1.384 0 2.563-.487 3.538-1.462.975-.975 1.462-2.154 1.462-3.538h2c0 1.75-.566 3.284-1.7 4.6-1.133 1.317-2.566 2.092-4.3 2.325v3.075h-2zm1-9c.283 0 .52-.095.712-.287a.968.968 0 00.287-.713v-6a.968.968 0 00-.287-.712.968.968 0 00-.713-.288.968.968 0 00-.712.288.968.968 0 00-.288.712v6c0 .284.096.521.288.713a.964.964 0 00.712.287z" fill="#9390A0"/></svg>
